(1002)
(T1  D=6 CR=0 - ZMIN=-13.5 - flat end mill)
G90 G94
G17
G21
(When using Fusion 360 for Personal Use, the feedrate of)
(rapid moves is reduced to match the feedrate of cutting)
(moves, which can increase machining time. Unrestricted rapid)
(moves are available with a Fusion 360 Subscription.)
G28 G91 Z0
G90

(2D Adaptive13)
T1
S22500 M3
G54
G0 X24.731 Y138.534
Z15
G1 Z5 F1000
Z-12.3
Z-12.9
X24.725 Y138.53 Z-12.994
X24.706 Y138.519 Z-13.085
X24.675 Y138.5 Z-13.172
X24.634 Y138.474 Z-13.253
X24.582 Y138.441 Z-13.324
X24.521 Y138.404 Z-13.385
X24.453 Y138.361 Z-13.435
X24.379 Y138.316 Z-13.471
X24.301 Y138.267 Z-13.493
X24.221 Y138.218 Z-13.5
G3 X21.619 Y136.188 I8.068 J-13.021
G1 X21.523 Y136.087
X21.33 Y135.718
X21.126 Y135.237
X20.913 Y134.595
X20.691 Y133.69
X20.538 Y132.745
X20.437 Y131.792
X20.369 Y130.837
X20.323 Y129.88
X20.315 Y129.635
X20.332 Y129.372
X20.398 Y129.116
X20.51 Y128.877
X20.611 Y128.707
X20.732 Y128.489
X20.916 Y128.054
X20.987 Y127.872
X21.475 Y126.531
X21.688 Y125.878
X21.729 Y125.66
X21.807 Y125.225
X21.878 Y124.79
X22.019 Y123.92
X22.05 Y123.702
X22.09 Y123.267
X22.105 Y123.049
X22.083 Y122.179
X22.052 Y121.091
X22.034 Y120.873
X21.974 Y120.438
X21.937 Y120.22
X21.64 Y118.869
X21.498 Y118.262
X21.432 Y118.045
X21.422 Y118.016
X21.255 Y117.609
X20.983 Y116.858
X20.764 Y116.056
X20.587 Y115.115
X20.469 Y114.165
X20.39 Y113.21
X20.338 Y112.254
X20.303 Y111.297
X20.279 Y110.339
X20.263 Y109.382
X20.252 Y108.424
X20.245 Y107.466
X20.24 Y106.509
X20.237 Y105.551
X20.233 Y103.636
X20.231 Y99.805
X20.23 Y67.243
Y16.485
Y-34.273
Y-85.031
Y-131
X20.213 Y-131.239
X20.098 Y-131.704
X19.594 Y-132.518
X18.847 Y-133.117
X17.99 Y-133.544
X17.08 Y-133.842
X16.144 Y-134.048
X15.197 Y-134.19
X14.244 Y-134.286
X13.289 Y-134.352
X12.332 Y-134.396
X11.375 Y-134.426
X10.418 Y-134.447
X9.774 Y-134.456
X9.562 Y-134.475
X9.355 Y-134.527
X9.158 Y-134.609
X8.785 Y-134.799
X8.591 Y-134.892
X8.156 Y-135.075
X7.938 Y-135.158
X7.503 Y-135.313
X7.286 Y-135.383
X6.851 Y-135.503
X6.633 Y-135.563
X6.198 Y-135.671
X5.981 Y-135.724
X5.328 Y-135.848
X4.676 Y-135.959
X4.458 Y-135.991
X4.024 Y-136.049
X3.806 Y-136.076
X3.371 Y-136.123
X3.154 Y-136.145
X1.196 Y-136.292
X0.979 Y-136.306
X0.326 Y-136.335
X-1.849 Y-136.38
X-2.501 Y-136.385
X-4.676 Y-136.35
X-5.328 Y-136.337
X-5.546 Y-136.329
X-7.721 Y-136.229
X-8.156 Y-136.208
X-8.373 Y-136.195
X-9.026 Y-136.152
X-9.687 Y-136.105
X-10.331 Y-136.052
X-10.766 Y-136.012
X-11.201 Y-135.971
X-11.853 Y-135.905
X-12.505 Y-135.823
X-13.158 Y-135.729
X-13.375 Y-135.693
X-13.81 Y-135.618
X-14.028 Y-135.577
X-14.463 Y-135.481
X-14.596 Y-135.452
X-14.68 Y-135.43
X-15.115 Y-135.304
X-15.333 Y-135.238
X-15.81 Y-135.095
X-16.746 Y-134.893
X-17.22 Y-134.826
X-17.654 Y-134.624
X-18.416 Y-134.044
X-18.971 Y-133.263
X-19.364 Y-132.39
X-19.638 Y-131.472
X-19.827 Y-130.533
X-19.956 Y-129.584
X-20.045 Y-128.631
X-20.105 Y-127.675
X-20.145 Y-126.718
X-20.173 Y-125.761
X-20.191 Y-124.803
X-20.204 Y-123.846
X-20.212 Y-122.888
X-20.218 Y-121.93
X-20.222 Y-120.973
X-20.226 Y-119.057
X-20.229 Y-116.184
X-20.23 Y-105.649
Y-87.453
Y-36.695
Y14.063
Y64.243
X-20.266 Y64.56
X-20.373 Y64.86
X-20.545 Y65.128
X-20.77 Y65.404
X-20.897 Y65.604
X-21.205 Y66.117
X-21.283 Y66.257
X-21.422 Y66.531
X-21.49 Y66.692
X-21.572 Y66.91
X-21.719 Y67.345
X-21.791 Y67.563
X-21.916 Y67.998
X-21.974 Y68.216
X-22.049 Y68.868
X-22.1 Y69.521
X-22.111 Y69.739
X-22.116 Y70.174
X-22.097 Y70.392
X-22.039 Y70.827
X-21.945 Y71.479
X-21.903 Y71.697
X-21.799 Y72.132
X-21.741 Y72.35
X-21.007 Y74.743
X-20.772 Y75.672
X-20.592 Y76.612
X-20.472 Y77.563
X-20.393 Y78.517
X-20.339 Y79.473
X-20.304 Y80.43
X-20.279 Y81.388
X-20.263 Y82.345
X-20.252 Y83.303
X-20.245 Y84.261
X-20.24 Y85.218
X-20.237 Y86.176
X-20.233 Y88.091
X-20.231 Y91.922
X-20.23 Y125.441
Y131.188
X-20.112 Y131.652
X-19.871 Y132.065
X-19.242 Y132.788
X-18.44 Y133.311
X-17.556 Y133.679
X-16.633 Y133.936
X-15.692 Y134.113
X-14.742 Y134.234
X-13.788 Y134.316
X-12.832 Y134.372
X-11.875 Y134.41
X-10.917 Y134.436
X-9.96 Y134.453
X-9.002 Y134.465
X-8.045 Y134.473
X-7.087 Y134.478
X-6.129 Y134.482
X-4.214 Y134.486
X-1.341 Y134.488
X0.821 Y134.489
X1.04 Y134.506
X1.254 Y134.557
X1.457 Y134.641
X2.284 Y135.062
X2.719 Y135.283
X2.936 Y135.368
X3.371 Y135.528
X3.589 Y135.595
X4.676 Y135.912
X4.893 Y135.974
X5.388 Y136.105
X5.546 Y136.143
X6.198 Y136.221
X7.503 Y136.345
X7.721 Y136.36
X8.156 Y136.379
X8.373 Y136.377
X9.026 Y136.321
X10.331 Y136.198
X10.548 Y136.163
X10.983 Y136.085
X11.201 Y136.028
X12.723 Y135.589
X12.94 Y135.524
X13.159 Y135.452
X13.518 Y135.311
X14.237 Y135.095
X15.173 Y134.893
X15.604 Y134.684
X16.34 Y134.071
X16.676 Y133.535
X16.771 Y133.4
X16.882 Y133.278
X17.006 Y133.17
G3 X17.843 Y133.307 Z-13.3 I0.35 J0.487
X17.662 Y134.173 I-0.487 J0.35
G1 X13.73 Y136.506
G3 X12.886 Y136.255 I-0.306 J-0.516
X13.159 Y135.452 Z-13.5 I0.538 J-0.265
G1 X13.81 Y135.158
X15.115 Y134.496
X15.333 Y134.379
X15.55 Y134.256
X15.73 Y134.146
X15.768 Y134.12
X15.985 Y133.958
X17.29 Y132.95
X17.431 Y132.841
X17.508 Y132.779
X17.943 Y132.361
X18.16 Y132.117
X18.813 Y131.38
X19.248 Y130.882
X19.42 Y130.665
X19.698 Y130.23
X19.836 Y130.012
X20.51 Y128.877
X20.526 Y128.861 Z-13.495
X20.546 Y128.852 Z-13.491
G2 X21.405 Y128.594 Z-13.3 I-1.25 J-5.714
X23.926 Y126.712 I-2.109 J-5.456
X24.05 Y126.385 I-0.475 J-0.367
G1 X24.436 Y120.546
G2 X24.356 Y120.205 I-0.599 J-0.04
X22.104 Y118.008 I-5.06 J2.933
X21.287 Y117.639 Z-13.491 I-2.808 J5.131
G1 X21.268 Y117.627 Z-13.495
X21.255 Y117.609 Z-13.5
X21.163 Y117.392
X20.697 Y116.304
X20.604 Y116.086
X20.503 Y115.869
X20.387 Y115.651
X20.335 Y115.562
X20.258 Y115.433
X19.465 Y114.256
X19.152 Y113.737
X18.942 Y113.316
X18.721 Y112.767
X18.492 Y112.031
X18.282 Y111.097
X18.139 Y110.15
X18.042 Y109.197
X17.976 Y108.242
X17.93 Y107.285
X17.899 Y106.328
X17.877 Y105.37
X17.862 Y104.413
X17.852 Y103.455
X17.845 Y102.497
X17.84 Y101.54
X17.837 Y100.582
X17.833 Y98.667
X17.831 Y94.836
X17.83 Y82.187
X17.831 Y82.145
X17.832 Y82.103
X17.836 Y82.061
X17.848 Y81.924
X17.863 Y81.706
X17.888 Y81.054
X17.91 Y80.401
Y80.183
X17.907 Y79.748
X17.904 Y79.53
X17.894 Y79.095
X17.902 Y78.138
X17.878 Y77.18
X17.863 Y76.223
X17.852 Y75.265
X17.845 Y74.307
X17.84 Y73.35
X17.837 Y72.392
X17.833 Y70.477
X17.831 Y66.646
X17.83 Y28.338
Y-22.42
Y-73.178
Y-123.936
Y-127.767
X17.8 Y-128.245
X17.668 Y-128.705
X17.233 Y-129.558
X16.558 Y-130.238
X15.751 Y-130.753
X14.872 Y-131.133
X13.955 Y-131.41
X13.019 Y-131.609
X12.636 Y-131.667
X12.337 Y-131.746
X12.062 Y-131.888
X11.824 Y-132.087
X11.636 Y-132.332
X11.418 Y-132.689
X11.308 Y-132.841
X11.201 Y-132.963
X10.766 Y-133.44
X10.716 Y-133.494
X10.548 Y-133.653
X10.484 Y-133.711
X10.331 Y-133.841
X10.113 Y-134.003
X9.896 Y-134.158
X9.678 Y-134.305
X9.461 Y-134.449
X9.243 Y-134.565
X9.158 Y-134.609
X8.785 Y-134.799 Z-13.411
X8.591 Y-134.892 Z-13.365
X8.467 Y-134.944 Z-13.337
X8.307 Y-135.011 Z-13.3
X8.156 Y-135.075
X7.938 Y-135.158
X7.503 Y-135.313
X7.286 Y-135.383
X6.851 Y-135.503
X6.633 Y-135.563
X6.198 Y-135.671
X5.981 Y-135.724
X5.328 Y-135.848
X5.111 Y-135.885
X4.676 Y-135.959
X4.458 Y-135.991
X4.024 Y-136.049
X3.806 Y-136.076
X3.371 Y-136.123
X3.154 Y-136.145
X1.196 Y-136.292
X0.979 Y-136.306
X0.544 Y-136.326
X0.326 Y-136.335
X-1.631 Y-136.376
X-1.849 Y-136.38
X-2.501 Y-136.385
X-2.719 Y-136.382
X-4.676 Y-136.35
X-5.328 Y-136.337
X-5.546 Y-136.329
X-7.503 Y-136.239
X-8.156 Y-136.208
X-8.373 Y-136.195
X-9.026 Y-136.152
X-9.687 Y-136.105
X-10.331 Y-136.052
X-10.548 Y-136.033
X-10.983 Y-135.992
X-11.201 Y-135.971
X-11.636 Y-135.928
X-11.853 Y-135.905
X-12.505 Y-135.823
X-12.723 Y-135.792
X-13.158 Y-135.729
X-13.375 Y-135.693
X-13.81 Y-135.618
X-14.028 Y-135.577
X-14.245 Y-135.529
X-14.425 Y-135.49
X-14.595 Y-135.452 Z-13.337
X-14.596
X-14.68 Y-135.43 Z-13.356
X-15.115 Y-135.304 Z-13.452
X-15.333 Y-135.238 Z-13.5
X-15.985 Y-134.984
X-16.203 Y-134.887
X-16.42 Y-134.762
X-16.638 Y-134.634
X-17.29 Y-134.179
X-17.332 Y-134.146
X-17.6 Y-133.929
X-17.725 Y-133.803
X-17.814 Y-133.711
X-17.943 Y-133.576
X-18.378 Y-133.001
X-18.496 Y-132.841
X-18.595 Y-132.699
X-18.813 Y-132.308
X-18.873 Y-132.188
X-19.07 Y-131.753
X-19.168 Y-131.535
X-19.258 Y-131.318
X-19.33 Y-131.1
X-19.4 Y-130.883
X-19.602 Y-130.23
X-19.655 Y-130.012
X-19.683 Y-129.895
X-19.698 Y-129.795
X-19.729 Y-129.577
X-19.739 Y-128.924
X-19.731 Y-128.489
X-17.889 Y-41.016
X-17.917 Y-40.059
X-17.889 Y-39.102
X-17.869 Y-38.144
X-17.857 Y-37.187
X-17.848 Y-36.229
X-17.842 Y-35.271
X-17.838 Y-34.314
X-17.834 Y-32.398
X-17.831 Y-29.525
X-17.83 Y-18.991
Y9.74
Y60.498
X-17.831 Y61.94
X-17.867 Y62.256
X-17.974 Y62.556
X-18.146 Y62.824
X-18.374 Y63.046
X-18.869 Y63.429
X-19.03 Y63.564
X-19.376 Y63.864
X-19.465 Y63.951
X-20.209 Y64.734
X-20.335 Y64.87
X-20.545 Y65.128
X-20.558 Y65.139 Z-13.496
X-20.575 Y65.146 Z-13.493
G2 X-21.436 Y65.426 Z-13.3 I1.101 J4.847
X-21.857 Y74.353 I1.963 J4.566
X-21.042 Y74.709 Z-13.489 I2.384 J-4.361
G1 X-21.02 Y74.722 Z-13.495
X-21.007 Y74.743 Z-13.5
X-18.669 Y82.359
X-18.434 Y83.288
X-18.235 Y84.224
X-18.103 Y85.173
X-18.014 Y86.127
X-17.954 Y87.082
X-17.914 Y88.039
X-17.887 Y88.997
X-17.869 Y89.954
X-17.856 Y90.912
X-17.848 Y91.869
X-17.842 Y92.827
X-17.838 Y93.785
X-17.834 Y95.7
X-17.831 Y98.573
X-17.83 Y108.15
Y128.262
X-17.688 Y128.719
X-17.242 Y129.567
X-16.562 Y130.241
X-15.753 Y130.754
X-14.874 Y131.133
X-13.957 Y131.41
X-13.02 Y131.609
X-12.073 Y131.751
X-11.121 Y131.852
X-10.166 Y131.923
X-9.21 Y131.973
X-8.252 Y132.008
X-7.295 Y132.033
X-6.338 Y132.05
X-5.38 Y132.062
X-4.422 Y132.07
X-3.465 Y132.076
X-2.513 Y132.08
X-2.231 Y132.11
X-1.96 Y132.196
X-1.712 Y132.335
X-1.498 Y132.522
X-1.403 Y132.623
X-1.196 Y132.801
X-0.023 Y133.711
X0.558 Y134.146
X0.761 Y134.273
X1.341 Y134.582
X1.457 Y134.641
G3 X1.748 Y135.311 I-0.291 J0.525
G1 X1.725 Y135.402 Z-13.493
X1.703 Y135.491 Z-13.471
X1.682 Y135.576 Z-13.435
X1.663 Y135.653 Z-13.385
X1.645 Y135.723 Z-13.324
X1.631 Y135.782 Z-13.253
X1.619 Y135.83 Z-13.172
X1.61 Y135.865 Z-13.085
X1.605 Y135.886 Z-12.994
X1.603 Y135.893 Z-12.9
Z5
X20.612 Y115.014
Z-12.3
Z-12.9
X20.605 Y115.011 Z-12.994
X20.586 Y115.001 Z-13.085
X20.553 Y114.986 Z-13.172
X20.508 Y114.965 Z-13.253
X20.453 Y114.939 Z-13.324
X20.388 Y114.908 Z-13.385
X20.316 Y114.874 Z-13.435
X20.237 Y114.837 Z-13.471
X20.154 Y114.798 Z-13.493
X20.07 Y114.757 Z-13.5
G3 X19.465 Y114.256 I0.676 J-1.431
G1 X19.379 Y114.128
X19.248 Y113.945
X18.813 Y113.368
X18.707 Y113.257
X17.631 Y112.169
X17.353 Y111.859
X17.142 Y111.582
X16.928 Y111.247
X16.697 Y110.814
X16.462 Y110.272
X16.218 Y109.557
X15.983 Y108.628
X15.818 Y107.685
X15.703 Y106.734
X15.622 Y105.78
X15.565 Y104.824
X15.525 Y103.867
X15.496 Y102.91
X15.477 Y101.952
X15.463 Y100.995
X15.453 Y100.037
X15.446 Y99.079
X15.441 Y98.122
X15.438 Y97.067
X15.44 Y96.973
X15.45 Y96.879
X15.465 Y96.786
X16.574 Y91.28
X16.615 Y91.063
X16.719 Y90.41
X17.508 Y85.358
X17.588 Y84.753
X17.611 Y84.535
X17.836 Y82.061
G3 X17.914 Y81.814 Z-13.444 I0.598 J0.054
G1 X17.945 Y81.752 Z-13.43
X17.969 Y81.688 Z-13.415
X17.985 Y81.622 Z-13.401
X18.04 Y81.326 Z-13.337
X18.072 Y81.155 Z-13.3
X18.235 Y80.276
G2 X18.212 Y79.972 I-0.59 J-0.109
G1 X18.184 Y79.903 Z-13.316
X18.147 Y79.839 Z-13.331
X18.133 Y79.817 Z-13.337
G3 X17.894 Y79.095 Z-13.5 I1.339 J-0.844
G1 X17.885 Y78.878
X17.853 Y78.442
X17.829 Y78.225
X17.781 Y78.007
X17.717 Y77.79
X17.641 Y77.572
X17.55 Y77.355
X17.435 Y77.137
X17.29 Y76.906
X17.15 Y76.702
X17.073 Y76.603
X16.852 Y76.289
X16.664 Y75.97
X16.465 Y75.56
X16.255 Y75.021
X16.037 Y74.292
X15.836 Y73.355
X15.703 Y72.407
X15.614 Y71.453
X15.554 Y70.498
X15.514 Y69.541
X15.486 Y68.583
X15.468 Y67.626
X15.456 Y66.668
X15.447 Y65.711
X15.442 Y64.753
X15.438 Y63.795
X15.434 Y61.88
X15.431 Y59.007
X15.43 Y48.472
Y26.445
Y-24.313
Y-75.071
Y-124.871
X15.418 Y-125.35
X15.328 Y-125.82
X14.985 Y-126.714
X14.381 Y-127.457
X13.63 Y-128.052
X12.928 Y-128.505
X12.708 Y-128.682
X12.527 Y-128.899
X12.394 Y-129.149
X12.313 Y-129.42
X12.289 Y-129.701
X12.297 Y-130.23
X12.29 Y-130.447
X12.272 Y-130.665
X12.237 Y-130.883
X12.18 Y-131.1
X12.05 Y-131.535
X12.045 Y-131.549
X11.719 Y-132.188
X11.636 Y-132.332
G3 X11.755 Y-133.053 I0.529 J-0.283
G1 X11.823 Y-133.117 Z-13.493
X11.89 Y-133.179 Z-13.471
X11.954 Y-133.239 Z-13.435
X12.012 Y-133.294 Z-13.385
X12.064 Y-133.343 Z-13.324
X12.109 Y-133.384 Z-13.253
X12.145 Y-133.418 Z-13.172
X12.171 Y-133.443 Z-13.085
X12.187 Y-133.458 Z-12.994
X12.193 Y-133.463 Z-12.9
Z5
X-18.444 Y-42.274
Z-12.3
Z-12.9
X-18.44 Y-42.268 Z-12.994
X-18.428 Y-42.249 Z-13.085
X-18.409 Y-42.219 Z-13.172
X-18.383 Y-42.177 Z-13.253
X-18.351 Y-42.125 Z-13.324
X-18.313 Y-42.064 Z-13.385
X-18.271 Y-41.996 Z-13.435
X-18.225 Y-41.922 Z-13.471
X-18.176 Y-41.845 Z-13.493
X-18.126 Y-41.765 Z-13.5
G3 X-17.889 Y-41.016 I-1.343 J0.837
G1 X-15.837 Y56.466
X-15.825 Y57.118
X-15.823 Y57.336
Y60.165
X-15.832 Y60.273
X-15.859 Y60.382
X-15.985 Y60.846
X-16.022 Y60.94
X-16.074 Y61.035
X-16.203 Y61.212
X-16.24 Y61.253
X-16.456 Y61.47
X-16.638 Y61.644
X-16.919 Y61.905
X-17.073 Y62.042
X-18.16 Y62.88
X-18.374 Y63.046
G3 X-19.104 Y63.023 I-0.35 J-0.487
G1 X-19.177 Y62.964 Z-13.493
X-19.248 Y62.906 Z-13.471
X-19.315 Y62.851 Z-13.435
X-19.377 Y62.8 Z-13.385
X-19.433 Y62.755 Z-13.324
X-19.48 Y62.716 Z-13.253
X-19.518 Y62.685 Z-13.172
X-19.546 Y62.662 Z-13.085
X-19.563 Y62.648 Z-12.994
X-19.569 Y62.643 Z-12.9
Z5
X-19.546 Y81.301
Z-12.3
Z-12.9
X-19.541 Y81.306 Z-12.994
X-19.524 Y81.32 Z-13.085
X-19.498 Y81.345 Z-13.172
X-19.461 Y81.378 Z-13.253
X-19.416 Y81.419 Z-13.324
X-19.363 Y81.467 Z-13.385
X-19.303 Y81.521 Z-13.435
X-19.239 Y81.579 Z-13.471
X-19.171 Y81.641 Z-13.493
X-19.102 Y81.704 Z-13.5
G3 X-18.669 Y82.359 I-1.063 J1.172
G1 X-16.264 Y90.193
X-16.03 Y91.121
X-15.833 Y92.058
X-15.701 Y93.007
X-15.613 Y93.96
X-15.554 Y94.916
X-15.514 Y95.873
X-15.487 Y96.831
X-15.468 Y97.788
X-15.456 Y98.746
X-15.448 Y99.703
X-15.442 Y100.661
X-15.438 Y101.619
X-15.434 Y103.534
X-15.431 Y106.407
X-15.43 Y115.984
Y125.561
X-15.167 Y126.482
X-14.619 Y127.267
X-13.892 Y127.891
X-13.063 Y128.371
X-12.176 Y128.73
X-11.256 Y128.996
X-10.318 Y129.191
X-9.371 Y129.332
X-8.418 Y129.434
X-7.464 Y129.507
X-6.507 Y129.56
X-5.55 Y129.597
X-4.593 Y129.624
X-4.503 Y129.628
X-4.242 Y129.666
X-3.993 Y129.752
X-3.765 Y129.883
X-3.565 Y130.055
X-3.401 Y130.261
X-3.137 Y130.665
X-2.961 Y130.883
X-2.775 Y131.1
X-2.007 Y131.97
X-1.849 Y132.148
X-1.498 Y132.522
G3 X-1.451 Y133.251 I-0.452 J0.395
G1 X-1.503 Y133.329 Z-13.493
X-1.554 Y133.405 Z-13.471
X-1.603 Y133.477 Z-13.435
X-1.647 Y133.544 Z-13.385
X-1.687 Y133.603 Z-13.324
X-1.721 Y133.654 Z-13.253
X-1.749 Y133.695 Z-13.172
X-1.769 Y133.725 Z-13.085
X-1.781 Y133.743 Z-12.994
X-1.785 Y133.749 Z-12.9
Z5
X18.899 Y112.7
Z-12.3
Z-12.9
X18.892 Y112.698 Z-12.994
X18.871 Y112.693 Z-13.085
X18.836 Y112.684 Z-13.172
X18.788 Y112.671 Z-13.253
X18.729 Y112.656 Z-13.324
X18.66 Y112.638 Z-13.385
X18.582 Y112.618 Z-13.435
X18.498 Y112.596 Z-13.471
X18.409 Y112.573 Z-13.493
X18.318 Y112.549 Z-13.5
G3 X17.631 Y112.169 I0.398 J-1.532
G1 X17.415 Y111.952
X17.29 Y111.829
X17.172 Y111.734
X16.602 Y111.299
X16.203 Y111.024
X15.768 Y110.726
X15.604 Y110.601
X15.408 Y110.425
X15.188 Y110.193
X14.963 Y109.913
X14.726 Y109.565
X14.479 Y109.131
X14.222 Y108.58
X13.963 Y107.886
X13.701 Y106.965
X13.545 Y106.184
X13.521 Y105.999
Y105.812
X13.546 Y105.627
G3 X14.27 Y105.185 Z-13.3 I0.583 J0.141
X14.679 Y105.527 I-0.141 J0.583
G1 X16.639 Y109.977
G3 X16.596 Y110.542 I-0.549 J0.242
X15.768 Y110.726 Z-13.5 I-0.506 J-0.322
G1 X15.333 Y110.427
X15.115 Y110.29
X14.554 Y109.994
X14.463 Y109.95
X14.066 Y109.776
X13.895 Y109.691
X13.71 Y109.578
X13.702 Y109.573
X13.488 Y109.382
X13.317 Y109.152
X13.197 Y108.892
X13.132 Y108.612
X13.126 Y108.326
G3 X13.79 Y107.798 Z-13.3 I0.596 J0.069
X14.216 Y108.055 I-0.068 J0.596
G1 X14.782 Y108.879
G3 X14.845 Y109.441 I-0.495 J0.34
X14.066 Y109.776 Z-13.5 I-0.557 J-0.223
G1 X13.473 Y109.515
X13.424 Y109.492
X13.375 Y109.462
X13.308 Y109.409
X13.241 Y109.341
X13.194 Y109.275
X13.158 Y109.209
X13.126 Y109.123
X13.113 Y109.069
X13.105 Y109.014
X13.098 Y108.906
X13.102 Y108.688
X13.114 Y108.47
X13.158 Y107.923
X13.167 Y107.818
X13.271 Y107.165
X13.378 Y106.512
X13.416 Y106.294
X13.543 Y105.642
X13.678 Y104.989
X13.771 Y104.554
X13.959 Y103.683
X14.195 Y102.595
X14.82 Y99.767
X15.295 Y97.591
X15.435 Y96.938
X15.465 Y96.786
X15.477 Y96.762 Z-13.494
X15.498 Y96.747 Z-13.489
G2 X16.305 Y96.374 Z-13.3 I-4.347 J-10.471
X18.818 Y94.629 I-5.154 J-10.099
X19.01 Y94.234 I-0.406 J-0.442
G1 X20.161 Y79.648
G2 X20.032 Y79.228 I-0.598 J-0.047
X17.853 Y77.13 I-8.881 J7.048
X17.086 Y76.615 Z-13.496 I-6.702 J9.145
G1 X17.073 Y76.603 Z-13.5
X16.98 Y76.484
X16.855 Y76.338
X16.593 Y76.049
X16.42 Y75.884
X16.36 Y75.831
X16.203 Y75.71
X15.985 Y75.551
X15.76 Y75.396
X15.486 Y75.198
X15.311 Y75.048
X15.115 Y74.851
X14.907 Y74.606
X14.692 Y74.307
X14.462 Y73.926
X14.228 Y73.456
X13.985 Y72.85
X13.736 Y72.048
X13.526 Y71.114
X13.378 Y70.167
X13.275 Y69.215
X13.202 Y68.26
X13.151 Y67.304
X13.114 Y66.347
X13.089 Y65.39
X13.071 Y64.432
X13.059 Y63.474
X13.05 Y62.517
X13.044 Y61.559
X13.04 Y60.601
X13.035 Y58.686
X13.031 Y55.813
X13.03 Y48.151
Y25.167
Y-25.591
Y-76.349
Y-122.319
X12.995 Y-123.276
X12.687 Y-124.183
X12.383 Y-124.718
X12.279 Y-124.946
X12.217 Y-125.189
X12.2 Y-125.44
X12.289 Y-129.701
G3 X12.762 Y-130.258 I0.599 J0.03
G1 X12.853 Y-130.278 Z-13.493
X12.943 Y-130.297 Z-13.471
X13.028 Y-130.315 Z-13.435
X13.106 Y-130.332 Z-13.385
X13.176 Y-130.347 Z-13.324
X13.236 Y-130.36 Z-13.253
X13.284 Y-130.371 Z-13.172
X13.32 Y-130.378 Z-13.085
X13.341 Y-130.383 Z-12.994
X13.348 Y-130.384 Z-12.9
Z5
X17.112 Y75.646
Z-12.3
Z-12.9
X17.104 Y75.645 Z-12.994
X17.082 Y75.644 Z-13.085
X17.046 Y75.643 Z-13.172
X16.997 Y75.641 Z-13.253
X16.936 Y75.639 Z-13.324
X16.864 Y75.636 Z-13.385
X16.784 Y75.632 Z-13.435
X16.697 Y75.629 Z-13.471
X16.606 Y75.625 Z-13.493
X16.512 Y75.622 Z-13.5
G3 X15.76 Y75.396 I0.064 J-1.581
G1 X15.333 Y75.119
X15.075 Y74.961
X14.463 Y74.589
X13.81 Y74.173
X13.685 Y74.091
X13.593 Y74.027
X13.296 Y73.799
X13.075 Y73.6
X12.847 Y73.358
X12.612 Y73.065
X12.359 Y72.692
X12.106 Y72.245
X11.842 Y71.675
X11.571 Y70.944
X11.312 Y70.022
X11.124 Y69.083
X10.988 Y68.135
X10.888 Y67.183
X10.816 Y66.228
X10.764 Y65.271
X10.727 Y64.314
X10.699 Y63.357
X10.68 Y62.4
X10.666 Y61.442
X10.655 Y60.484
X10.648 Y59.527
X10.643 Y58.569
X10.639 Y57.611
X10.635 Y55.696
X10.632 Y52.823
X10.63 Y45.161
Y24.092
Y-26.666
Y-50.476
X12.2 Y-125.44
G3 X12.677 Y-125.993 I0.599 J0.033
G1 X12.768 Y-126.013 Z-13.493
X12.858 Y-126.031 Z-13.471
X12.943 Y-126.049 Z-13.435
X13.022 Y-126.066 Z-13.385
X13.092 Y-126.08 Z-13.324
X13.152 Y-126.093 Z-13.253
X13.2 Y-126.103 Z-13.172
X13.235 Y-126.11 Z-13.085
X13.257 Y-126.115 Z-12.994
X13.264 Y-126.116 Z-12.9
Z5
X14.937 Y74.313
Z-12.3
Z-12.9
X14.93 Z-12.994
X14.908 Y74.311 Z-13.085
X14.872 Y74.309 Z-13.172
X14.823 Y74.306 Z-13.253
X14.762 Y74.302 Z-13.324
X14.691 Y74.297 Z-13.385
X14.611 Y74.291 Z-13.435
X14.524 Y74.285 Z-13.471
X14.432 Y74.279 Z-13.493
X14.339 Y74.273 Z-13.5
G3 X13.593 Y74.027 I0.107 J-1.579
G1 X13.054 Y73.655
X12.94 Y73.57
X12.228 Y73.003
X12.071 Y72.846
X11.81 Y72.567
X11.405 Y72.132
X11.201 Y71.888
X11.045 Y71.697
X10.766 Y71.302
X10.74 Y71.262
X10.609 Y71.044
X10.331 Y70.575
X10.234 Y70.392
X10.014 Y69.956
X9.904 Y69.739
X9.628 Y69.086
X9.54 Y68.868
X9.366 Y68.433
X9.072 Y67.522
X8.829 Y66.595
X8.657 Y65.653
X8.535 Y64.703
X8.448 Y63.75
X8.386 Y62.794
X8.378 Y62.604
X8.377 Y62.56
G3 X8.997 Y61.982 Z-13.3 I0.6 J0.021
X9.568 Y62.482 I-0.02 J0.6
G1 X10.507 Y68.093
G3 X10.157 Y68.741 I-0.592 J0.099
X9.366 Y68.433 Z-13.5 I-0.241 J-0.549
G1 X9.284 Y68.216
X8.856 Y66.91
X8.808 Y66.757
X8.61 Y66.04
X8.447 Y65.387
X8.394 Y65.169
X8.384 Y65.115
X8.378 Y65.06
X8.377 Y64.952
Y57.336
X8.378 Y57.118
X8.395 Y56.248
X10.63 Y-50.476
G3 X11.107 Y-51.03 I0.599 J0.033
G1 X11.198 Y-51.049 Z-13.493
X11.288 Y-51.068 Z-13.471
X11.373 Y-51.086 Z-13.435
X11.452 Y-51.102 Z-13.385
X11.522 Y-51.117 Z-13.324
X11.582 Y-51.129 Z-13.253
X11.63 Y-51.139 Z-13.172
X11.665 Y-51.147 Z-13.085
X11.687 Y-51.151 Z-12.994
X11.694 Y-51.153 Z-12.9
Z5
X-17.142 Y89.134
Z-12.3
Z-12.9
X-17.136 Y89.139 Z-12.994
X-17.12 Y89.154 Z-13.085
X-17.093 Y89.178 Z-13.172
X-17.057 Y89.211 Z-13.253
X-17.011 Y89.252 Z-13.324
X-16.958 Y89.3 Z-13.385
X-16.899 Y89.354 Z-13.435
X-16.834 Y89.413 Z-13.471
X-16.767 Y89.474 Z-13.493
X-16.697 Y89.537 Z-13.5
G3 X-16.264 Y90.193 I-1.063 J1.172
G1 X-13.86 Y98.026
X-13.625 Y98.954
X-13.43 Y99.892
X-13.299 Y100.841
X-13.212 Y101.794
X-13.153 Y102.75
X-13.113 Y103.707
X-13.086 Y104.664
X-13.068 Y105.622
X-13.056 Y106.58
X-13.047 Y107.537
X-13.042 Y108.495
X-13.038 Y109.453
X-13.034 Y111.368
X-13.031 Y114.241
X-13.03 Y122.86
X-12.833 Y123.798
X-12.338 Y124.618
X-11.651 Y125.284
X-10.845 Y125.802
X-9.972 Y126.196
X-9.061 Y126.49
X-8.128 Y126.708
X-7.184 Y126.868
X-6.234 Y126.989
X-5.772 Y127.06
X-5.482 Y127.136
X-5.216 Y127.273
X-4.984 Y127.463
X-4.798 Y127.698
X-4.667 Y127.967
X-4.635 Y128.054
X-4.551 Y128.271
X-4.444 Y128.489
X-4.326 Y128.707
X-3.553 Y130.012
X-3.421 Y130.23
X-3.401 Y130.261
G3 X-3.481 Y130.987 I-0.513 J0.31
G1 X-3.546 Y131.055 Z-13.493
X-3.61 Y131.121 Z-13.471
X-3.67 Y131.184 Z-13.435
X-3.726 Y131.242 Z-13.385
X-3.775 Y131.293 Z-13.324
X-3.818 Y131.337 Z-13.253
X-3.852 Y131.373 Z-13.172
X-3.877 Y131.399 Z-13.085
X-3.892 Y131.415 Z-12.994
X-3.897 Y131.42 Z-12.9
Z5
X-14.737 Y96.967
Z-12.3
Z-12.9
X-14.732 Y96.972 Z-12.994
X-14.715 Y96.987 Z-13.085
X-14.689 Y97.011 Z-13.172
X-14.652 Y97.044 Z-13.253
X-14.607 Y97.085 Z-13.324
X-14.554 Y97.134 Z-13.385
X-14.494 Y97.187 Z-13.435
X-14.43 Y97.246 Z-13.471
X-14.362 Y97.307 Z-13.493
X-14.293 Y97.37 Z-13.5
G3 X-13.86 Y98.026 I-1.063 J1.172
G1 X-11.455 Y105.859
X-11.221 Y106.788
X-11.027 Y107.726
X-10.897 Y108.674
X-10.81 Y109.628
X-10.752 Y110.584
X-10.713 Y111.541
X-10.686 Y112.498
X-10.668 Y113.456
X-10.656 Y114.413
X-10.647 Y115.371
X-10.642 Y116.329
X-10.638 Y117.287
X-10.634 Y119.202
X-10.632 Y120.16
X-10.509 Y121.109
X-10.08 Y121.966
X-9.436 Y122.674
X-8.659 Y123.234
X-7.805 Y123.667
X-6.915 Y124.022
X-6.363 Y124.24
X-6.087 Y124.387
X-5.85 Y124.592
X-5.665 Y124.844
X-5.54 Y125.131
X-4.776 Y127.619
X-4.676 Y127.942
X-4.667 Y127.967
G3 X-4.912 Y128.655 I-0.571 J0.184
G1 X-4.991 Y128.706 Z-13.493
X-5.068 Y128.756 Z-13.471
X-5.141 Y128.803 Z-13.435
X-5.208 Y128.847 Z-13.385
X-5.268 Y128.886 Z-13.324
X-5.319 Y128.919 Z-13.253
X-5.361 Y128.946 Z-13.172
X-5.391 Y128.965 Z-13.085
X-5.409 Y128.977 Z-12.994
X-5.416 Y128.981 Z-12.9
Z5
X-12.333 Y104.801
Z-12.3
Z-12.9
X-12.327 Y104.806 Z-12.994
X-12.311 Y104.82 Z-13.085
X-12.284 Y104.845 Z-13.172
X-12.248 Y104.878 Z-13.253
X-12.202 Y104.919 Z-13.324
X-12.149 Y104.967 Z-13.385
X-12.09 Y105.021 Z-13.435
X-12.026 Y105.079 Z-13.471
X-11.958 Y105.141 Z-13.493
X-11.888 Y105.204 Z-13.5
G3 X-11.455 Y105.859 I-1.063 J1.172
G1 X-9.051 Y113.693
X-8.816 Y114.621
X-8.624 Y115.559
X-8.495 Y116.508
X-8.409 Y117.462
X-8.313 Y118.415
X-7.945 Y119.299
X-7.367 Y120.063
X-7.247 Y120.177
X-7.09 Y120.355
X-6.965 Y120.557
X-6.876 Y120.778
G3 X-7.155 Y121.453 I-0.579 J0.156
G1 X-7.236 Y121.5 Z-13.493
X-7.315 Y121.546 Z-13.471
X-7.391 Y121.59 Z-13.435
X-7.46 Y121.63 Z-13.385
X-7.522 Y121.666 Z-13.324
X-7.575 Y121.696 Z-13.253
X-7.618 Y121.721 Z-13.172
X-7.649 Y121.739 Z-13.085
X-7.668 Y121.75 Z-12.994
X-7.674 Y121.754 Z-12.9
Z5
X-9.928 Y112.634
Z-12.3
Z-12.9
X-9.923 Y112.639 Z-12.994
X-9.906 Y112.654 Z-13.085
X-9.88 Y112.678 Z-13.172
X-9.843 Y112.711 Z-13.253
X-9.798 Y112.752 Z-13.324
X-9.745 Y112.8 Z-13.385
X-9.686 Y112.854 Z-13.435
X-9.621 Y112.913 Z-13.471
X-9.553 Y112.974 Z-13.493
X-9.484 Y113.037 Z-13.5
G3 X-9.051 Y113.693 I-1.063 J1.172
G1 X-5.54 Y125.131
G3 X-5.819 Y125.806 I-0.579 J0.156
G1 X-5.9 Y125.853 Z-13.493
X-5.979 Y125.899 Z-13.471
X-6.055 Y125.943 Z-13.435
X-6.124 Y125.983 Z-13.385
X-6.186 Y126.019 Z-13.324
X-6.239 Y126.05 Z-13.253
X-6.281 Y126.074 Z-13.172
X-6.313 Y126.092 Z-13.085
X-6.332 Y126.103 Z-12.994
X-6.338 Y126.107 Z-12.9
Z15
G28 G91 Z0
G90
G28 G91 X0 Y0
G90
M5
M30
